!!!ONR: No. 36
!! From Harold Courlander, "Haiti Singing"
!! Chapel Hill: University of North Carolina Press, 1939
!! Copyright University of North Carolina Press
!!!ENC: D. Huron
**kern
*clefG2
*k[]
*M2/4
=1-
4r
8dd
8dd
=
3ee
6dd
=
4g
4g
=
8r
8g
8b
8g
=
4.b
8ee
=
4dd
4dd
=
4r
16b
16dd
16ee
16dd
=
4ee
16dd
16ee
16dd
16b
=
4dd
16b
16dd
16ee
16dd
=
4ee
16ddd
16ee
16dd
16b
=
4dd
4b
=
16g
16a
16b
16ee
8dd
8dd
=
16g
16a
16g
16e
8g
[8g
=
2g]
==
*-
